X:153
T:Away to the Camp. THO5.153
M:6/8
L:1/8
B:Thompson's Complete Collection of 200 Favourite Dances Vol.5
F:https://www.libraryofdance.org/manuals/1780c-Thompson-Compleat-5.pdf
Z:vmp. Peter Dunk 2024
Q:3/8=100
K:C
G|cec ege|faf d2f|ege B2c|dcd G2G|
cdc ege|faf d2f|ege fdB|c3-c2:|
|:e|e3 dcd|efe dcd|egc B2c|dcd G2e|
e3 dcd|efe dcd|ege fdB|c3-c2:|
W:
W:The 3 Ladies Promenade round the 3 Gents ./.
W:The 3 Gents round the 3 Ladies ./:
W:lead down the middle, up again and cast off :/.
W:Allemand with your Partner :/:

